polaris-icons/icons/new-icons/MetafieldsMajor.svg

<svg width="20" height="20" viewBox="0 0 20 20" fill="none" xmlns="http://www.w3.org/2000/svg">
<path d="M3 6.75C3 5.23122 4.23122 4 5.75 4H6C6.41421 4 6.75 4.33579 6.75 4.75C6.75 5.16421 6.41421 5.5 6 5.5H5.75C5.05964 5.5 4.5 6.05964 4.5 6.75V9C4.5 9.19891 4.42098 9.38968 4.28033 9.53033L3.81066 10L4.28033 10.4697C4.42098 10.6103 4.5 10.8011 4.5 11V13.25C4.5 13.9404 5.05964 14.5 5.75 14.5H6C6.41421 14.5 6.75 14.8358 6.75 15.25C6.75 15.6642 6.41421 16 6 16H5.75C4.23122 16 3 14.7688 3 13.25V11.3107L2.21967 10.5303C1.92678 10.2374 1.92678 9.76256 2.21967 9.46967L3 8.68934V6.75Z" fill="#4A4A4A"/>
<path d="M17 13.25C17 14.7688 15.7688 16 14.25 16H14C13.5858 16 13.25 15.6642 13.25 15.25C13.25 14.8358 13.5858 14.5 14 14.5H14.25C14.9404 14.5 15.5 13.9404 15.5 13.25V11C15.5 10.8011 15.579 10.6103 15.7197 10.4697L16.1893 10L15.7197 9.53033C15.579 9.38968 15.5 9.19891 15.5 9V6.75C15.5 6.05964 14.9404 5.5 14.25 5.5H14C13.5858 5.5 13.25 5.16421 13.25 4.75C13.25 4.33579 13.5858 4 14 4H14.25C15.7688 4 17 5.23122 17 6.75V8.68934L17.7803 9.46967C18.0732 9.76256 18.0732 10.2374 17.7803 10.5303L17 11.3107V13.25Z" fill="#4A4A4A"/>
<path d="M12.9128 6.10107C13.1066 5.73499 12.967 5.28111 12.6009 5.08731C12.2348 4.8935 11.781 5.03316 11.5872 5.39923L7.08716 13.8992C6.89335 14.2653 7.033 14.7192 7.39908 14.913C7.76516 15.1068 8.21903 14.9671 8.41284 14.6011L12.9128 6.10107Z" fill="#4A4A4A"/>
</svg>

<svg viewBox="0 0 20 20" xmlns="http://www.w3.org/2000/svg"><path d="M3 6.75a2.75 2.75 0 0 1 2.75-2.75h.25a.75.75 0 0 1 0 1.5h-.25c-.69 0-1.25.56-1.25 1.25v2.25a.75.75 0 0 1-.22.53l-.47.47.47.47c.141.14.22.331.22.53v2.25c0 .69.56 1.25 1.25 1.25h.25a.75.75 0 0 1 0 1.5h-.25a2.75 2.75 0 0 1-2.75-2.75v-1.94l-.78-.78a.75.75 0 0 1 0-1.06l.78-.78v-1.94Z" fill="#5C5F62"/><path d="M17 13.25a2.75 2.75 0 0 1-2.75 2.75h-.25a.75.75 0 0 1 0-1.5h.25c.69 0 1.25-.56 1.25-1.25v-2.25a.75.75 0 0 1 .22-.53l.47-.47-.47-.47a.75.75 0 0 1-.22-.53v-2.25c0-.69-.56-1.25-1.25-1.25h-.25a.75.75 0 0 1 0-1.5h.25a2.75 2.75 0 0 1 2.75 2.75v1.94l.78.78a.75.75 0 0 1 0 1.06l-.78.78v1.94Z" fill="#5C5F62"/><path d="M12.913 6.101a.75.75 0 1 0-1.326-.702l-4.5 8.5a.75.75 0 0 0 1.326.702l4.5-8.5Z" fill="#5C5F62"/></svg>
